public/seterra-extra-logo.svg

<svg width="300" height="240" viewBox="0 0 300 240" fill="none" xmlns="http://www.w3.org/2000/svg">
<path d="M63.2653 239.547C49.8636 237.011 37.3777 235.527 25.6507 231.774C11.7071 227.311 2.38612 217.833 0.379756 202.603C-1.68338 186.943 4.7423 175.242 17.6485 166.963C40.8874 152.054 66.7065 149.865 93.4315 153.892C102.616 155.276 102.489 162.361 101.55 169.093C100.542 176.326 100.427 184.746 89.6985 184.967C84.3756 185.077 79.0265 183.998 73.7046 184.116C64.8444 184.313 55.7242 183.948 47.2495 185.969C42.4751 187.108 38.7732 192.55 34.5882 196.053C38.7087 199.318 42.4355 204.693 47.0129 205.51C78.5598 211.145 110.105 212.23 139.731 197.476C160.724 187.022 161.801 169.736 142.048 157.426C129.732 149.751 116.191 143.879 102.941 137.73C51.7842 113.992 59.8693 69.5491 82.2807 42.4967C110.742 8.14101 149.488 -3.82617 193.239 1.03815C221.229 4.15023 231.855 29.1649 216.7 52.7568C201.804 75.9435 178.186 87.137 152.504 94.2721C147.155 95.7579 137.184 93.9489 134.749 90.2518C129.439 82.1898 135.886 66.919 143.688 63.5258C155.066 58.5778 166.735 54.1904 177.772 48.6046C182.795 46.0621 186.605 41.223 193.686 35.0551C186.272 32.9508 182.737 31.0556 179.225 31.093C152.796 31.3747 129.094 39.2238 110.554 58.1618C93.8887 75.1848 96.1896 93.8733 116.569 106.402C130.474 114.951 145.739 121.355 159.93 129.495C201.674 153.439 202.447 196.794 161.542 222.532C136.876 238.053 108.873 240.06 80.5523 239.999C75.2069 239.987 69.8621 239.735 63.2653 239.547Z" fill="#DCBD36"/>
<path d="M273.499 150.716C259.308 148.065 251.467 153.712 246.798 165.31C245.03 169.703 242.923 174.742 239.357 177.464C235.223 180.619 229.314 181.549 224.175 183.445C223.157 178.419 220.688 173.157 221.495 168.429C222.456 162.803 226.229 157.636 229.652 150.445C221.104 150.445 214.177 151.695 208.083 150.031C203.599 148.806 200.204 143.768 196.324 140.429C200.205 136.956 203.599 131.509 208.076 130.452C215.678 128.658 224.186 130.669 231.882 129.079C237.05 128.011 242.694 124.412 245.933 120.295C250.447 114.561 251.932 106.498 256.592 100.938C259.787 97.1265 266.178 95.8781 271.14 93.4839C273.447 98.9295 277.506 104.362 277.548 109.824C277.587 114.893 273.337 119.994 270.083 127.004C276.203 126.66 281.132 125.228 285.248 126.44C290.508 127.988 295.113 131.668 300 134.429C296.387 139.235 293.586 145.128 288.891 148.485C285.443 150.949 279.513 150.091 273.499 150.716Z" fill="#DDBD36"/>
</svg>

<svg xmlns="http://www.w3.org/2000/svg" width="300" height="240" fill="none" xmlns:v="https://vecta.io/nano"><path d="M63.265 239.547c-13.402-2.536-25.888-4.02-37.615-7.773C11.707 227.311 2.386 217.833.38 202.603c-2.063-15.66 4.363-27.361 17.269-35.64 23.239-14.909 49.058-17.098 75.783-13.071 9.185 1.384 9.058 8.469 8.118 15.201-1.008 7.233-1.123 15.653-11.852 15.874-5.323.11-10.672-.969-15.994-.851-8.86.197-17.98-.168-26.455 1.853-4.774 1.139-8.476 6.581-12.661 10.084 4.121 3.265 7.847 8.64 12.425 9.457 31.547 5.635 63.092 6.72 92.718-8.034 20.993-10.454 22.07-27.74 2.317-40.05-12.316-7.675-25.857-13.547-39.107-19.696-51.157-23.738-43.072-68.181-20.66-95.233C110.742 8.141 149.488-3.826 193.239 1.038c27.99 3.112 38.616 28.127 23.461 51.719-14.896 23.187-38.514 34.38-64.196 41.515-5.349 1.486-15.32-.323-17.755-4.02-5.31-8.062 1.137-23.333 8.939-26.726 11.378-4.948 23.047-9.335 34.084-14.921 5.023-2.542 8.833-7.382 15.914-13.549-7.414-2.104-10.949-4-14.461-3.962-26.429.282-50.131 8.131-68.671 27.069-16.665 17.023-14.364 35.712 6.015 48.24 13.905 8.549 29.17 14.953 43.361 23.093 41.744 23.944 42.517 67.299 1.612 93.037-24.666 15.521-52.669 17.528-80.99 17.467-5.345-.012-10.69-.264-17.287-.452z" fill="#dcbd36"/><path d="M273.499 150.716c-14.191-2.651-22.032 2.996-26.701 14.594-1.768 4.393-3.875 9.432-7.441 12.154-4.134 3.155-10.043 4.085-15.182 5.981-1.018-5.026-3.487-10.288-2.68-15.016.961-5.626 4.734-10.793 8.157-17.984-8.548 0-15.475 1.25-21.569-.414-4.484-1.225-7.879-6.263-11.759-9.602 3.881-3.473 7.275-8.92 11.752-9.977 7.602-1.794 16.11.217 23.806-1.373 5.168-1.068 10.812-4.667 14.051-8.784 4.514-5.734 5.999-13.797 10.659-19.357 3.195-3.812 9.586-5.06 14.548-7.454 2.307 5.446 6.366 10.878 6.408 16.34.039 5.069-4.211 10.17-7.465 17.18 6.12-.344 11.049-1.776 15.165-.564 5.26 1.548 9.865 5.228 14.752 7.989-3.613 4.806-6.414 10.699-11.109 14.056-3.448 2.464-9.378 1.606-15.392 2.231z" fill="#ddbd36"/></svg>
